icon/pk/video.svg

<svg viewBox="0 0 48 48" fill="none" xmlns="http://www.w3.org/2000/svg" height="1em" width="1em">
  <path d="M4 10C4 8.89543 4.89543 8 6 8H42C43.1046 8 44 8.89543 44 10V38C44 39.1046 43.1046 40 42 40H6C4.89543 40 4 39.1046 4 38V10Z" fill="#2F88FF" stroke="black" stroke-width="4" stroke-linejoin="round"/>
  <path d="M36 8V40" stroke="white" stroke-width="4" stroke-linecap="round" stroke-linejoin="round"/>
  <path d="M12 8V40" stroke="white" stroke-width="4" stroke-linecap="round" stroke-linejoin="round"/>
  <path d="M38 18H44" stroke="white" stroke-width="4" stroke-linecap="round" stroke-linejoin="round"/>
  <path d="M38 30H44" stroke="white" stroke-width="4" stroke-linecap="round" stroke-linejoin="round"/>
  <path d="M4 18H10" stroke="white" stroke-width="4" stroke-linecap="round" stroke-linejoin="round"/>
  <path d="M4 16V20" stroke="black" stroke-width="4" stroke-linecap="round" stroke-linejoin="round"/>
  <path d="M9 8H15" stroke="black" stroke-width="4" stroke-linecap="round" stroke-linejoin="round"/>
  <path d="M9 40H15" stroke="black" stroke-width="4" stroke-linecap="round" stroke-linejoin="round"/>
  <path d="M33 8H39" stroke="black" stroke-width="4" stroke-linecap="round" stroke-linejoin="round"/>
  <path d="M33 40H39" stroke="black" stroke-width="4" stroke-linecap="round" stroke-linejoin="round"/>
  <path d="M4 30H10" stroke="white" stroke-width="4" stroke-linecap="round" stroke-linejoin="round"/>
  <path d="M4 28V32" stroke="black" stroke-width="4" stroke-linecap="round" stroke-linejoin="round"/>
  <path d="M44 28V32" stroke="black" stroke-width="4" stroke-linecap="round" stroke-linejoin="round"/>
  <path d="M44 16V20" stroke="black" stroke-width="4" stroke-linecap="round" stroke-linejoin="round"/>
  <path d="M21 19L29 24L21 29V19Z" fill="#43CCF8" stroke="white" stroke-width="4" stroke-linejoin="round"/>
</svg>

<svg width="48" height="48" fill="none" xmlns="http://www.w3.org/2000/svg"><path d="M4 10a2 2 0 0 1 2-2h36a2 2 0 0 1 2 2v28a2 2 0 0 1-2 2H6a2 2 0 0 1-2-2V10Z" fill="#2F88FF" stroke="#000" stroke-width="4" stroke-linejoin="round"/><path d="M36 8v32M12 8v32M38 18h6M38 30h6M4 18h6" stroke="#fff" stroke-width="4" stroke-linecap="round" stroke-linejoin="round"/><path d="M4 16v4M9 8h6M9 40h6M33 8h6M33 40h6" stroke="#000" stroke-width="4" stroke-linecap="round" stroke-linejoin="round"/><path d="M4 30h6" stroke="#fff" stroke-width="4" stroke-linecap="round" stroke-linejoin="round"/><path d="M4 28v4M44 28v4M44 16v4" stroke="#000" stroke-width="4" stroke-linecap="round" stroke-linejoin="round"/><path d="m21 19 8 5-8 5V19Z" fill="#43CCF8" stroke="#fff" stroke-width="4" stroke-linejoin="round"/></svg>
